!!!SOCIAL_FUNCTION:	initiation songs of the first and second degrees
!!!PDT:	1909
!!!OTL: No_4_Preparatory_Song.krn
!!!REG: Great_Lakes
!!!LANG: Non-Tone
!!!LING_GROUP: Algonquin
**kern	**kern
*staff2	*staff1
*clefF4	*clefF4
*k[b-e-a-d-g-c-]	*k[b-e-a-d-g-c-]
*M2/4	*M2/4
4r	4d-\
=1	=1
8GG-/L	6d-\
8GG-/J	.
.	6B-\
8GG-/L	.
.	6G-\
8GG-/J	.
=2	=2
8GG-/L	4.G-\
8GG-/J	.
8GG-/L	.
8GG-/J	8A-\
=3	=3
2r	6A-\
.	6A-\
.	6A-\
=4	=4
2r	[2A-\
=5	=5
2r	4A-\]
.	4B-\
=6	=6
2r	8B-\L
.	8B-\J
.	8A-\L
.	8A-\J
=7	=7
2r	4G-\
.	4G-\
=8	=8
2r	4.E-\
.	8G-\
=9	=9
2r	6G-\
.	6A-\
.	6A-\
=10	=10
2r	[2G-\
=11	=11
2r	4G-\]
.	4A-\
=12	=12
2r	8G-\L
.	8G-\J
.	8E-\L
.	8E-\J
=13	=13
2r	6D-\
.	6D-\
.	8BB-/L
.	24D-/Jk
=14	=14
2r	6D-\
.	[6BB-/
.	6BB-/]
=15	=15
2r	2GG-/
==	==
*-	*-
